Sources/FrostedUI/Resources/Icons.xcassets/lock24.imageset/lock-24.svg

<svg width="24" height="24" viewBox="0 0 24 24" fill="none" xmlns="http://www.w3.org/2000/svg" data-fui-icon="true">
  <path
    d="M12 0C15.866 0 19 3.13401 19 7V10.0742C20.7118 10.4216 22 11.9357 22 13.75V20.25C22 22.3211 20.3211 24 18.25 24H5.75C3.67893 24 2 22.3211 2 20.25V13.75C2 11.9357 3.28824 10.4216 5 10.0742V7C5 3.13401 8.13401 0 12 0ZM5.75 11.5C4.50736 11.5 3.5 12.5074 3.5 13.75V20.25C3.5 21.4926 4.50736 22.5 5.75 22.5H18.25C19.4926 22.5 20.5 21.4926 20.5 20.25V13.75C20.5 12.5074 19.4926 11.5 18.25 11.5H5.75ZM12 1.5C8.96243 1.5 6.5 3.96243 6.5 7V10H17.5V7C17.5 3.96243 15.0376 1.5 12 1.5Z"
    fill="currentColor"
  />
</svg>

<svg xmlns="http://www.w3.org/2000/svg" width="24" height="24" fill="none" data-fui-icon="true" viewBox="0 0 24 24"><path fill="currentColor" d="M12 0a7 7 0 0 1 7 7v3.074c1.712.348 3 1.862 3 3.676v6.5A3.75 3.75 0 0 1 18.25 24H5.75A3.75 3.75 0 0 1 2 20.25v-6.5a3.75 3.75 0 0 1 3-3.676V7a7 7 0 0 1 7-7M5.75 11.5a2.25 2.25 0 0 0-2.25 2.25v6.5a2.25 2.25 0 0 0 2.25 2.25h12.5a2.25 2.25 0 0 0 2.25-2.25v-6.5a2.25 2.25 0 0 0-2.25-2.25zM12 1.5A5.5 5.5 0 0 0 6.5 7v3h11V7A5.5 5.5 0 0 0 12 1.5"/></svg>
